antibot/app/images/dist/lets-icon.svg

<svg width="166" height="151" viewBox="0 0 166 151" fill="none" xmlns="http://www.w3.org/2000/svg">
<g filter="url(#filter0_d_54_6113)">
<path d="M82.9998 68C86.978 68 90.7933 66.4196 93.6064 63.6066C96.4194 60.7936 97.9998 56.9782 97.9998 53C97.9998 49.0218 96.4194 45.2064 93.6064 42.3934C90.7933 39.5804 86.978 38 82.9998 38C79.0215 38 75.2062 39.5804 72.3932 42.3934C69.5801 45.2064 67.9998 49.0218 67.9998 53C67.9998 56.9782 69.5801 60.7936 72.3932 63.6066C75.2062 66.4196 79.0215 68 82.9998 68ZM62.9998 63C62.9998 65.6522 61.9462 68.1957 60.0708 70.0711C58.1955 71.9464 55.6519 73 52.9998 73C50.3476 73 47.8041 71.9464 45.9287 70.0711C44.0533 68.1957 42.9998 65.6522 42.9998 63C42.9998 60.3478 44.0533 57.8043 45.9287 55.9289C47.8041 54.0536 50.3476 53 52.9998 53C55.6519 53 58.1955 54.0536 60.0708 55.9289C61.9462 57.8043 62.9998 60.3478 62.9998 63ZM40.4498 99.63C39.5962 99.1449 38.957 98.3557 38.6598 97.42C37.7788 94.5666 37.7696 91.5153 38.6332 88.6566C39.4969 85.798 41.1942 83.2622 43.5077 81.374C45.8213 79.4858 48.6457 78.3311 51.6195 78.0578V78.0578C56.0305 77.6525 56.9858 83.0155 54.7856 86.86C52.5552 90.7573 51.1424 95.1041 50.6748 99.635V99.635C50.5045 101.279 49.1697 102.765 47.5566 102.407C45.0652 101.854 42.6673 100.919 40.4498 99.63ZM115.2 102.9C115.2 102.9 115.2 102.9 115.2 102.9C118.849 102.586 122.383 101.469 125.55 99.63C126.401 99.1439 127.039 98.3549 127.335 97.42C128.217 94.5663 128.227 91.5142 127.364 88.6546C126.501 85.7951 124.804 83.2583 122.49 81.3693C120.176 79.4803 117.351 78.3251 114.377 78.0518V78.0518C109.965 77.6464 109.011 83.0103 111.213 86.8544C113.446 90.7529 114.861 95.1017 115.33 99.635C115.441 100.724 115.398 101.824 115.201 102.9C115.201 102.901 115.2 102.901 115.2 102.9V102.9ZM123 63C123 65.6522 121.946 68.1957 120.071 70.0711C118.195 71.9464 115.652 73 113 73C110.348 73 107.804 71.9464 105.929 70.0711C104.053 68.1957 103 65.6522 103 63C103 60.3478 104.053 57.8043 105.929 55.9289C107.804 54.0536 110.348 53 113 53C115.652 53 118.195 54.0536 120.071 55.9289C121.946 57.8043 123 60.3478 123 63ZM59.5198 103.95C59.0267 103.508 58.6444 102.957 58.4038 102.34C58.1632 101.724 58.071 101.059 58.1348 100.4C58.7707 94.2474 61.665 88.549 66.258 84.4062C70.8511 80.2635 76.8169 77.9705 83.0023 77.9705C89.1876 77.9705 95.1534 80.2635 99.7465 84.4062C104.34 88.549 107.234 94.2474 107.87 100.4C107.934 101.059 107.842 101.724 107.601 102.34C107.361 102.957 106.978 103.509 106.485 103.95C100.056 109.785 91.6817 113.012 82.9998 113C74.3195 113.011 65.9472 109.784 59.5198 103.95Z" fill="#29B74D"/>
</g>
<defs>
<filter id="filter0_d_54_6113" x="0.492188" y="0.5" width="165.012" height="150" filterUnits="userSpaceOnUse" color-interpolation-filters="sRGB">
<feFlood flood-opacity="0" result="BackgroundImageFix"/>
<feColorMatrix in="SourceAlpha" type="matrix" values="0 0 0 0 0 0 0 0 0 0 0 0 0 0 0 0 0 0 127 0" result="hardAlpha"/>
<feOffset/>
<feGaussianBlur stdDeviation="18.75"/>
<feComposite in2="hardAlpha" operator="out"/>
<feColorMatrix type="matrix" values="0 0 0 0 0.160784 0 0 0 0 0.717647 0 0 0 0 0.301961 0 0 0 0.3 0"/>
<feBlend mode="normal" in2="BackgroundImageFix" result="effect1_dropShadow_54_6113"/>
<feBlend mode="normal" in="SourceGraphic" in2="effect1_dropShadow_54_6113" result="shape"/>
</filter>
</defs>
</svg>

<svg width="166" height="151" fill="none" xmlns="http://www.w3.org/2000/svg"><g filter="url(#a)"><path d="M83 68a15 15 0 1 0 0-30 15 15 0 0 0 0 30Zm-20-5a10 10 0 1 1-20 0 10 10 0 0 1 20 0ZM40.45 99.63a3.9 3.9 0 0 1-1.79-2.21 15 15 0 0 1 12.96-19.362c4.41-.406 5.366 4.957 3.166 8.802a32.417 32.417 0 0 0-4.111 12.775c-.17 1.644-1.505 3.13-3.118 2.772a24.862 24.862 0 0 1-7.107-2.777Zm74.75 3.27a24.855 24.855 0 0 0 10.35-3.27 3.903 3.903 0 0 0 1.785-2.21 15.004 15.004 0 0 0-4.845-16.05 15 15 0 0 0-8.113-3.318c-4.412-.406-5.366 4.958-3.164 8.802a32.426 32.426 0 0 1 4.117 12.781 11.603 11.603 0 0 1-.13 3.265ZM123 63a10.002 10.002 0 0 1-17.071 7.071 9.997 9.997 0 0 1 0-14.142A10 10 0 0 1 123 63Zm-63.48 40.95a4.221 4.221 0 0 1-1.385-3.55 25 25 0 0 1 49.735 0 4.209 4.209 0 0 1-.269 1.94 4.208 4.208 0 0 1-1.116 1.61A34.873 34.873 0 0 1 83 113a34.87 34.87 0 0 1-23.48-9.05Z" fill="#29B74D"/></g><defs><filter id="a" x=".492" y=".5" width="165.012" height="150" filterUnits="userSpaceOnUse" color-interpolation-filters="sRGB"><feFlood flood-opacity="0" result="BackgroundImageFix"/><feColorMatrix in="SourceAlpha" values="0 0 0 0 0 0 0 0 0 0 0 0 0 0 0 0 0 0 127 0" result="hardAlpha"/><feOffset/><feGaussianBlur stdDeviation="18.75"/><feComposite in2="hardAlpha" operator="out"/><feColorMatrix values="0 0 0 0 0.160784 0 0 0 0 0.717647 0 0 0 0 0.301961 0 0 0 0.3 0"/><feBlend in2="BackgroundImageFix" result="effect1_dropShadow_54_6113"/><feBlend in="SourceGraphic" in2="effect1_dropShadow_54_6113" result="shape"/></filter></defs></svg>
